src/pos-icons/skip-next-outline.svg

<svg height="24" viewBox="0 0 24 24" width="24" xmlns="http://www.w3.org/2000/svg"><path d="m6 18 8.5-6-8.5-6m2 3.86 3.03 2.14-3.03 2.14m8-8.14h2v12h-2"/></svg>

<?xml version="1.0" encoding="UTF-8"?><!DOCTYPE svg PUBLIC "-//W3C//DTD SVG 1.1//EN" "http://www.w3.org/Graphics/SVG/1.1/DTD/svg11.dtd"><svg xmlns="http://www.w3.org/2000/svg" xmlns:xlink="http://www.w3.org/1999/xlink" version="1.1" id="mdi-skip-next-outline" width="24" height="24" viewBox="0 0 24 24"><path d="M6,18L14.5,12L6,6M8,9.86L11.03,12L8,14.14M16,6H18V18H16" /></svg>
